;FLAVOR:Marlin
;TIME:393
;Filament used: 0.887249m
;Layer height: 0.28
;Generated with Cura_SteamEngine 3.5.1
M140 S60
M105
M190 S60
M104 S200
M105
M109 S200
M82 ;absolute extrusion mode
G28 ;Home
G1 Z15.0 F6000 ;Move the platform down 15mm
;Prime the extruder
G92 E0
G1 F200 E3
G92 E0
G92 E0
G1 F2400 E-5
;LAYER_COUNT:22
;LAYER:0
M107
M204 S5000
M205 X30 Y30
G0 F3600 X169.1 Y132.6 Z0.2
M204 S500
M205 X20 Y20
;TYPE:WALL-INNER
G1 F2400 E0
G1 F2700 X169.1 Y167.4 E1.15745
G1 X169.1 Y167.6 E1.1641
G1 X168.9 Y167.6 E1.16943
G1 X131.1 Y167.6 E2.42667
G1 X130.9 Y167.6 E2.43332
G1 X130.9 Y167.4 E2.43865
G1 X130.9 Y132.6 E3.5961
G1 X127.9 Y132.6 E3.69588
G1 X127.9 Y132.4 E3.70253
G1 X130.9 Y132.4 E3.75243
G1 X131.1 Y132.4 E3.75776
G1 X131.1 Y132.6 E3.76308
G1 X131.1 Y167.4 E4.34181
G1 X168.9 Y167.4 E4.97043
G1 X168.9 Y132.6 E5.54915
G1 X168.9 Y132.4 E5.55581
G1 X169.1 Y132.4 E5.56114
G1 X172.1 Y132.4 E5.66092
G1 X172.1 Y132.6 E5.66757
G1 X169.1 Y132.6 E5.71746
M204 S5000
M205 X30 Y30
G0 F3600 X169.5 Y133
M204 S500
M205 X20 Y20
G1 F2700 X169.5 Y168 E6.88156
G1 X130.5 Y168 E8.17871
G1 X130.5 Y133 E9.34281
G1 X127.5 Y133 E9.44259
G1 X127.5 Y132 E9.47585
G1 X131.5 Y132 E9.60889
G1 X131.5 Y167 E10.773
G1 X168.5 Y167 E12.00362
G1 X168.5 Y132 E13.16773
G1 X172.5 Y132 E13.30077
G1 X172.5 Y133 E13.33403
G1 X169.5 Y133 E13.43381
M204 S5000
M205 X30 Y30
G0 F3600 X169.9 Y133.4
M204 S500
M205 X20 Y20
G1 F2700 X169.9 Y168.4 E14.59791
G1 X130.1 Y168.4 E15.92167
G1 X130.1 Y133.4 E17.08577
G1 X127.1 Y133.4 E17.18555
G1 X127.1 Y131.6 E17.24542
G1 X131.9 Y131.6 E17.40507
G1 X131.9 Y166.6 E18.56917
G1 X168.1 Y166.6 E19.77319
G1 X168.1 Y131.6 E20.9373
G1 X172.9 Y131.6 E21.09695
G1 X172.9 Y133.4 E21.15681
G1 X169.9 Y133.4 E21.25659
M204 S5000
M205 X30 Y30
G0 F3600 X170.3 Y133.8
M204 S500
M205 X20 Y20
;TYPE:WALL-OUTER
G1 F2700 X170.3 Y168.8 E22.4207
G1 X129.7 Y168.8 E23.77106
G1 X129.7 Y133.8 E24.93516
G1 X126.7 Y133.8 E25.03495
G1 X126.7 Y131.2 E25.12142
G1 X132.3 Y131.2 E25.30768
G1 X132.3 Y166.2 E26.47178
G1 X167.7 Y166.2 E27.64919
G1 X167.7 Y131.2 E28.8133
G1 X173.3 Y131.2 E28.99955
G1 X173.3 Y133.8 E29.08603
G1 X170.3 Y133.8 E29.18581
M204 S5000
M205 X30 Y30
G0 F3600 X170.3 Y134
G0 X169.5 Y134
G0 X169.1 Y132.6
;TIME_ELAPSED:31.408615
;LAYER:1
M140 S60
M106 S255
G0 F5400 X169.1 Y132.6 Z0.48
M204 S500
M205 X20 Y20
;TYPE:WALL-INNER
G1 F4050 X169.1 Y167.4 E30.80624
G1 X169.1 Y167.6 E30.81556
G1 X168.9 Y167.6 E30.82302
G1 X131.1 Y167.6 E32.58314
G1 X130.9 Y167.6 E32.59246
G1 X130.9 Y167.4 E32.59992
G1 X130.9 Y132.6 E34.22035
G1 X127.9 Y132.6 E34.36005
G1 X127.9 Y132.4 E34.36936
G1 X130.9 Y132.4 E34.43921
G1 X131.1 Y132.4 E34.44667
G1 X131.1 Y132.6 E34.45413
G1 X131.1 Y167.4 E35.26435
G1 X168.9 Y167.4 E36.14441
G1 X168.9 Y132.6 E36.95463
G1 X168.9 Y132.4 E36.96394
G1 X169.1 Y132.4 E36.9714
G1 X172.1 Y132.4 E37.11109
G1 X172.1 Y132.6 E37.12041
G1 X169.1 Y132.6 E37.19025
M204 S5000
M205 X30 Y30
G0 F5400 X169.5 Y133
M204 S500
M205 X20 Y20
G1 F4050 X169.5 Y168 E38.82
G1 X130.5 Y168 E40.636
G1 X130.5 Y133 E42.26575
G1 X127.5 Y133 E42.40544
G1 X127.5 Y132 E42.45201
G1 X131.5 Y132 E42.63826
G1 X131.5 Y167 E44.26801
G1 X168.5 Y167 E45.99088
G1 X168.5 Y132 E47.62063
G1 X172.5 Y132 E47.80689
G1 X172.5 Y133 E47.85345
G1 X169.5 Y133 E47.99314
M204 S5000
M205 X30 Y30
G0 F5400 X169.9 Y133.4
M204 S500
M205 X20 Y20
G1 F4050 X169.9 Y168.4 E49.62289
G1 X130.1 Y168.4 E51.47615
G1 X130.1 Y133.4 E53.10589
G1 X127.1 Y133.4 E53.24558
G1 X127.1 Y131.6 E53.3294
G1 X131.9 Y131.6 E53.55291
G1 X131.9 Y166.6 E55.18266
G1 X168.1 Y166.6 E56.86828
G1 X168.1 Y131.6 E58.49803
G1 X172.9 Y131.6 E58.72153
G1 X172.9 Y133.4 E58.80535
G1 X169.9 Y133.4 E58.94504
M204 S5000
M205 X30 Y30
G0 F5400 X170.3 Y133.8
M204 S500
M205 X20 Y20
;TYPE:WALL-OUTER
G1 F2700 X170.3 Y168.8 E60.57479
G1 X129.7 Y168.8 E62.46529
G1 X129.7 Y133.8 E64.09504
G1 X126.7 Y133.8 E64.23473
G1 X126.7 Y131.2 E64.3558
G1 X132.3 Y131.2 E64.61656
G1 X132.3 Y166.2 E66.24631
G1 X167.7 Y166.2 E67.89468
G1 X167.7 Y131.2 E69.52443
G1 X173.3 Y131.2 E69.78518
G1 X173.3 Y133.8 E69.90625
G1 X170.3 Y133.8 E70.04594
M204 S5000
M205 X30 Y30
G0 F5400 X170.3 Y134
G0 X169.5 Y134
G0 X169.1 Y132.6
;TIME_ELAPSED:50.182153
;LAYER:2
G0 F7200 X169.1 Y132.6 Z0.76
M204 S500
M205 X20 Y20
;TYPE:WALL-INNER
G1 F5400 X169.1 Y167.4 E71.66638
G1 X169.1 Y167.6 E71.67569
G1 X168.9 Y167.6 E71.68315
G1 X131.1 Y167.6 E73.44328
G1 X130.9 Y167.6 E73.45259
G1 X130.9 Y167.4 E73.46005
G1 X130.9 Y132.6 E75.08049
G1 X127.9 Y132.6 E75.22018
G1 X127.9 Y132.4 E75.22949
G1 X130.9 Y132.4 E75.29934
G1 X131.1 Y132.4 E75.3068
G1 X131.1 Y132.6 E75.31426
G1 X131.1 Y167.4 E76.12448
G1 X168.9 Y167.4 E77.00454
G1 X168.9 Y132.6 E77.81476
G1 X168.9 Y132.4 E77.82407
G1 X169.1 Y132.4 E77.83153
G1 X172.1 Y132.4 E77.97123
G1 X172.1 Y132.6 E77.98054
G1 X169.1 Y132.6 E78.05039
M204 S5000
M205 X30 Y30
G0 F7200 X169.5 Y133
M204 S500
M205 X20 Y20
G1 F5400 X169.5 Y168 E79.68013
G1 X130.5 Y168 E81.49614
G1 X130.5 Y133 E83.12588
G1 X127.5 Y133 E83.26558
G1 X127.5 Y132 E83.31214
G1 X131.5 Y132 E83.4984
G1 X131.5 Y167 E85.12814
G1 X168.5 Y167 E86.85102
G1 X168.5 Y132 E88.48076
G1 X172.5 Y132 E88.66702
G1 X172.5 Y133 E88.71359
G1 X169.5 Y133 E88.85328
M204 S5000
M205 X30 Y30
G0 F7200 X169.9 Y133.4
M204 S500
M205 X20 Y20
G1 F5400 X169.9 Y168.4 E90.48302
G1 X130.1 Y168.4 E92.33628
G1 X130.1 Y133.4 E93.96603
G1 X127.1 Y133.4 E94.10572
G1 X127.1 Y131.6 E94.18953
G1 X131.9 Y131.6 E94.41304
G1 X131.9 Y166.6 E96.04279
G1 X168.1 Y166.6 E97.72841
G1 X168.1 Y131.6 E99.35816
G1 X172.9 Y131.6 E99.58167
G1 X172.9 Y133.4 E99.66548
G1 X169.9 Y133.4 E99.80518
M204 S5000
M205 X30 Y30
G0 F7200 X170.3 Y133.8
M204 S500
M205 X20 Y20
;TYPE:WALL-OUTER
G1 F2700 X170.3 Y168.8 E101.43492
G1 X129.7 Y168.8 E103.32543
G1 X129.7 Y133.8 E104.95517
G1 X126.7 Y133.8 E105.09487
G1 X126.7 Y131.2 E105.21593
G1 X132.3 Y131.2 E105.47669
G1 X132.3 Y166.2 E107.10644
G1 X167.7 Y166.2 E108.75481
G1 X167.7 Y131.2 E110.38456
G1 X173.3 Y131.2 E110.64532
G1 X173.3 Y133.8 E110.76639
G1 X170.3 Y133.8 E110.90608
M204 S5000
M205 X30 Y30
G0 F7200 X170.3 Y134
G0 X169.5 Y134
G0 X169.1 Y132.6
;TIME_ELAPSED:67.343319
;LAYER:3
G0 X169.1 Y132.6 Z1.04
M204 S500
M205 X20 Y20
;TYPE:WALL-INNER
G1 F5400 X169.1 Y167.4 E112.52651
G1 X169.1 Y167.6 E112.53582
G1 X168.9 Y167.6 E112.54329
G1 X131.1 Y167.6 E114.30341
G1 X130.9 Y167.6 E114.31273
G1 X130.9 Y167.4 E114.32019
G1 X130.9 Y132.6 E115.94062
G1 X127.9 Y132.6 E116.08031
G1 X127.9 Y132.4 E116.08963
G1 X130.9 Y132.4 E116.15947
G1 X131.1 Y132.4 E116.16694
G1 X131.1 Y132.6 E116.1744
G1 X131.1 Y167.4 E116.98461
G1 X168.9 Y167.4 E117.86468
G1 X168.9 Y132.6 E118.67489
G1 X168.9 Y132.4 E118.68421
G1 X169.1 Y132.4 E118.69167
G1 X172.1 Y132.4 E118.83136
G1 X172.1 Y132.6 E118.84067
G1 X169.1 Y132.6 E118.91052
M204 S5000
M205 X30 Y30
G0 F7200 X169.5 Y133
M204 S500
M205 X20 Y20
G1 F5400 X169.5 Y168 E120.54027
G1 X130.5 Y168 E122.35627
G1 X130.5 Y133 E123.98602
G1 X127.5 Y133 E124.12571
G1 X127.5 Y132 E124.17227
G1 X131.5 Y132 E124.35853
G1 X131.5 Y167 E125.98828
G1 X168.5 Y167 E127.71115
G1 X168.5 Y132 E129.3409
G1 X172.5 Y132 E129.52716
G1 X172.5 Y133 E129.57372
G1 X169.5 Y133 E129.71341
M204 S5000
M205 X30 Y30
G0 F7200 X169.9 Y133.4
M204 S500
M205 X20 Y20
G1 F5400 X169.9 Y168.4 E131.34316
G1 X130.1 Y168.4 E133.19641
G1 X130.1 Y133.4 E134.82616
G1 X127.1 Y133.4 E134.96585
G1 X127.1 Y131.6 E135.04967
G1 X131.9 Y131.6 E135.27318
G1 X131.9 Y166.6 E136.90292
G1 X168.1 Y166.6 E138.58855
G1 X168.1 Y131.6 E140.21829
G1 X172.9 Y131.6 E140.4418
G1 X172.9 Y133.4 E140.52562
G1 X169.9 Y133.4 E140.66531
M204 S5000
M205 X30 Y30
G0 F7200 X170.3 Y133.8
M204 S500
M205 X20 Y20
;TYPE:WALL-OUTER
G1 F2700 X170.3 Y168.8 E142.29506
G1 X129.7 Y168.8 E144.18556
G1 X129.7 Y133.8 E145.81531
G1 X126.7 Y133.8 E145.955
G1 X126.7 Y131.2 E146.07607
G1 X132.3 Y131.2 E146.33683
G1 X132.3 Y166.2 E147.96657
G1 X167.7 Y166.2 E149.61495
G1 X167.7 Y131.2 E151.24469
G1 X173.3 Y131.2 E151.50545
G1 X173.3 Y133.8 E151.62652
G1 X170.3 Y133.8 E151.76621
M204 S5000
M205 X30 Y30
G0 F7200 X170.3 Y134
G0 X169.5 Y134
G0 X169.1 Y132.6
;TIME_ELAPSED:84.504485
;LAYER:4
G0 X169.1 Y132.6 Z1.32
M204 S500
M205 X20 Y20
;TYPE:WALL-INNER
G1 F5400 X169.1 Y167.4 E153.38665
G1 X169.1 Y167.6 E153.39596
G1 X168.9 Y167.6 E153.40342
G1 X131.1 Y167.6 E155.16355
G1 X130.9 Y167.6 E155.17286
G1 X130.9 Y167.4 E155.18032
G1 X130.9 Y132.6 E156.80076
G1 X127.9 Y132.6 E156.94045
G1 X127.9 Y132.4 E156.94976
G1 X130.9 Y132.4 E157.01961
G1 X131.1 Y132.4 E157.02707
G1 X131.1 Y132.6 E157.03453
G1 X131.1 Y167.4 E157.84475
G1 X168.9 Y167.4 E158.72481
G1 X168.9 Y132.6 E159.53503
G1 X168.9 Y132.4 E159.54434
G1 X169.1 Y132.4 E159.5518
G1 X172.1 Y132.4 E159.6915
G1 X172.1 Y132.6 E159.70081
G1 X169.1 Y132.6 E159.77065
M204 S5000
M205 X30 Y30
G0 F7200 X169.5 Y133
M204 S500
M205 X20 Y20
G1 F5400 X169.5 Y168 E161.4004
G1 X130.5 Y168 E163.2164
G1 X130.5 Y133 E164.84615
G1 X127.5 Y133 E164.98584
G1 X127.5 Y132 E165.03241
G1 X131.5 Y132 E165.21866
G1 X131.5 Y167 E166.84841
G1 X168.5 Y167 E168.57129
G1 X168.5 Y132 E170.20103
G1 X172.5 Y132 E170.38729
G1 X172.5 Y133 E170.43385
G1 X169.5 Y133 E170.57355
M204 S5000
M205 X30 Y30
G0 F7200 X169.9 Y133.4
M204 S500
M205 X20 Y20
G1 F5400 X169.9 Y168.4 E172.20329
G1 X130.1 Y168.4 E174.05655
G1 X130.1 Y133.4 E175.68629
G1 X127.1 Y133.4 E175.82599
G1 X127.1 Y131.6 E175.9098
G1 X131.9 Y131.6 E176.13331
G1 X131.9 Y166.6 E177.76306
G1 X168.1 Y166.6 E179.44868
G1 X168.1 Y131.6 E181.07843
G1 X172.9 Y131.6 E181.30194
G1 X172.9 Y133.4 E181.38575
G1 X169.9 Y133.4 E181.52544
M204 S5000
M205 X30 Y30
G0 F7200 X170.3 Y133.8
M204 S500
M205 X20 Y20
;TYPE:WALL-OUTER
G1 F2700 X170.3 Y168.8 E183.15519
G1 X129.7 Y168.8 E185.0457
G1 X129.7 Y133.8 E186.67544
G1 X126.7 Y133.8 E186.81514
G1 X126.7 Y131.2 E186.9362
G1 X132.3 Y131.2 E187.19696
G1 X132.3 Y166.2 E188.82671
G1 X167.7 Y166.2 E190.47508
G1 X167.7 Y131.2 E192.10483
G1 X173.3 Y131.2 E192.36559
G1 X173.3 Y133.8 E192.48665
G1 X170.3 Y133.8 E192.62635
M204 S5000
M205 X30 Y30
G0 F7200 X170.3 Y134
G0 X169.5 Y134
G0 X169.1 Y132.6
;TIME_ELAPSED:101.665651
;LAYER:5
G0 X169.1 Y132.6 Z1.6
M204 S500
M205 X20 Y20
;TYPE:WALL-INNER
G1 F5400 X169.1 Y167.4 E194.24678
G1 X169.1 Y167.6 E194.25609
G1 X168.9 Y167.6 E194.26356
G1 X131.1 Y167.6 E196.02368
G1 X130.9 Y167.6 E196.03299
G1 X130.9 Y167.4 E196.04046
G1 X130.9 Y132.6 E197.66089
G1 X127.9 Y132.6 E197.80058
G1 X127.9 Y132.4 E197.8099
G1 X130.9 Y132.4 E197.87974
G1 X131.1 Y132.4 E197.8872
G1 X131.1 Y132.6 E197.89467
G1 X131.1 Y167.4 E198.70488
G1 X168.9 Y167.4 E199.58495
G1 X168.9 Y132.6 E200.39516
G1 X168.9 Y132.4 E200.40448
G1 X169.1 Y132.4 E200.41194
G1 X172.1 Y132.4 E200.55163
G1 X172.1 Y132.6 E200.56094
G1 X169.1 Y132.6 E200.63079
M204 S5000
M205 X30 Y30
G0 F7200 X169.5 Y133
M204 S500
M205 X20 Y20
G1 F5400 X169.5 Y168 E202.26054
G1 X130.5 Y168 E204.07654
G1 X130.5 Y133 E205.70629
G1 X127.5 Y133 E205.84598
G1 X127.5 Y132 E205.89254
G1 X131.5 Y132 E206.0788
G1 X131.5 Y167 E207.70855
G1 X168.5 Y167 E209.43142
G1 X168.5 Y132 E211.06117
G1 X172.5 Y132 E211.24742
G1 X172.5 Y133 E211.29399
G1 X169.5 Y133 E211.43368
M204 S5000
M205 X30 Y30
G0 F7200 X169.9 Y133.4
M204 S500
M205 X20 Y20
G1 F5400 X169.9 Y168.4 E213.06343
G1 X130.1 Y168.4 E214.91668
G1 X130.1 Y133.4 E216.54643
G1 X127.1 Y133.4 E216.68612
G1 X127.1 Y131.6 E216.76994
G1 X131.9 Y131.6 E216.99344
G1 X131.9 Y166.6 E218.62319
G1 X168.1 Y166.6 E220.30882
G1 X168.1 Y131.6 E221.93856
G1 X172.9 Y131.6 E222.16207
G1 X172.9 Y133.4 E222.24589
G1 X169.9 Y133.4 E222.38558
M204 S5000
M205 X30 Y30
G0 F7200 X170.3 Y133.8
M204 S500
M205 X20 Y20
;TYPE:WALL-OUTER
G1 F2700 X170.3 Y168.8 E224.01532
G1 X129.7 Y168.8 E225.90583
G1 X129.7 Y133.8 E227.53558
G1 X126.7 Y133.8 E227.67527
G1 X126.7 Y131.2 E227.79634
G1 X132.3 Y131.2 E228.0571
G1 X132.3 Y166.2 E229.68684
G1 X167.7 Y166.2 E231.33522
G1 X167.7 Y131.2 E232.96496
G1 X173.3 Y131.2 E233.22572
G1 X173.3 Y133.8 E233.34679
G1 X170.3 Y133.8 E233.48648
M204 S5000
M205 X30 Y30
G0 F7200 X170.3 Y134
G0 X169.5 Y134
G0 X169.1 Y132.6
;TIME_ELAPSED:118.826816
;LAYER:6
G0 X169.1 Y132.6 Z1.88
M204 S500
M205 X20 Y20
;TYPE:WALL-INNER
G1 F5400 X169.1 Y167.4 E235.10691
G1 X169.1 Y167.6 E235.11623
G1 X168.9 Y167.6 E235.12369
G1 X131.1 Y167.6 E236.88382
G1 X130.9 Y167.6 E236.89313
G1 X130.9 Y167.4 E236.90059
G1 X130.9 Y132.6 E238.52102
G1 X127.9 Y132.6 E238.66072
G1 X127.9 Y132.4 E238.67003
G1 X130.9 Y132.4 E238.73988
G1 X131.1 Y132.4 E238.74734
G1 X131.1 Y132.6 E238.7548
G1 X131.1 Y167.4 E239.56502
G1 X168.9 Y167.4 E240.44508
G1 X168.9 Y132.6 E241.2553
G1 X168.9 Y132.4 E241.26461
G1 X169.1 Y132.4 E241.27207
G1 X172.1 Y132.4 E241.41176
G1 X172.1 Y132.6 E241.42108
G1 X169.1 Y132.6 E241.49092
M204 S5000
M205 X30 Y30
G0 F7200 X169.5 Y133
M204 S500
M205 X20 Y20
G1 F5400 X169.5 Y168 E243.12067
G1 X130.5 Y168 E244.93667
G1 X130.5 Y133 E246.56642
G1 X127.5 Y133 E246.70611
G1 X127.5 Y132 E246.75268
G1 X131.5 Y132 E246.93893
G1 X131.5 Y167 E248.56868
G1 X168.5 Y167 E250.29155
G1 X168.5 Y132 E251.9213
G1 X172.5 Y132 E252.10756
G1 X172.5 Y133 E252.15412
G1 X169.5 Y133 E252.29381
M204 S5000
M205 X30 Y30
G0 F7200 X169.9 Y133.4
M204 S500
M205 X20 Y20
G1 F5400 X169.9 Y168.4 E253.92356
G1 X130.1 Y168.4 E255.77682
G1 X130.1 Y133.4 E257.40656
G1 X127.1 Y133.4 E257.54626
G1 X127.1 Y131.6 E257.63007
G1 X131.9 Y131.6 E257.85358
G1 X131.9 Y166.6 E259.48333
G1 X168.1 Y166.6 E261.16895
G1 X168.1 Y131.6 E262.7987
G1 X172.9 Y131.6 E263.0222
G1 X172.9 Y133.4 E263.10602
G1 X169.9 Y133.4 E263.24571
M204 S5000
M205 X30 Y30
G0 F7200 X170.3 Y133.8
M204 S500
M205 X20 Y20
;TYPE:WALL-OUTER
G1 F2700 X170.3 Y168.8 E264.87546
G1 X129.7 Y168.8 E266.76596
G1 X129.7 Y133.8 E268.39571
G1 X126.7 Y133.8 E268.5354
G1 X126.7 Y131.2 E268.65647
G1 X132.3 Y131.2 E268.91723
G1 X132.3 Y166.2 E270.54698
G1 X167.7 Y166.2 E272.19535
G1 X167.7 Y131.2 E273.8251
G1 X173.3 Y131.2 E274.08586
G1 X173.3 Y133.8 E274.20692
G1 X170.3 Y133.8 E274.34661
M204 S5000
M205 X30 Y30
G0 F7200 X170.3 Y134
G0 X169.5 Y134
G0 X169.1 Y132.6
;TIME_ELAPSED:135.987982
;LAYER:7
G0 X169.1 Y132.6 Z2.16
M204 S500
M205 X20 Y20
;TYPE:WALL-INNER
G1 F5400 X169.1 Y167.4 E275.96705
G1 X169.1 Y167.6 E275.97636
G1 X168.9 Y167.6 E275.98382
G1 X131.1 Y167.6 E277.74395
G1 X130.9 Y167.6 E277.75326
G1 X130.9 Y167.4 E277.76072
G1 X130.9 Y132.6 E279.38116
G1 X127.9 Y132.6 E279.52085
G1 X127.9 Y132.4 E279.53016
G1 X130.9 Y132.4 E279.60001
G1 X131.1 Y132.4 E279.60747
G1 X131.1 Y132.6 E279.61493
G1 X131.1 Y167.4 E280.42515
G1 X168.9 Y167.4 E281.30521
G1 X168.9 Y132.6 E282.11543
G1 X168.9 Y132.4 E282.12474
G1 X169.1 Y132.4 E282.13221
G1 X172.1 Y132.4 E282.2719
G1 X172.1 Y132.6 E282.28121
G1 X169.1 Y132.6 E282.35106
M204 S5000
M205 X30 Y30
G0 F7200 X169.5 Y133
M204 S500
M205 X20 Y20
G1 F5400 X169.5 Y168 E283.9808
G1 X130.5 Y168 E285.79681
G1 X130.5 Y133 E287.42655
G1 X127.5 Y133 E287.56625
G1 X127.5 Y132 E287.61281
G1 X131.5 Y132 E287.79907
G1 X131.5 Y167 E289.42881
G1 X168.5 Y167 E291.15169
G1 X168.5 Y132 E292.78144
G1 X172.5 Y132 E292.96769
G1 X172.5 Y133 E293.01426
G1 X169.5 Y133 E293.15395
M204 S5000
M205 X30 Y30
G0 F7200 X169.9 Y133.4
M204 S500
M205 X20 Y20
G1 F5400 X169.9 Y168.4 E294.7837
G1 X130.1 Y168.4 E296.63695
G1 X130.1 Y133.4 E298.2667
G1 X127.1 Y133.4 E298.40639
G1 X127.1 Y131.6 E298.4902
G1 X131.9 Y131.6 E298.71371
G1 X131.9 Y166.6 E300.34346
G1 X168.1 Y166.6 E302.02908
G1 X168.1 Y131.6 E303.65883
G1 X172.9 Y131.6 E303.88234
G1 X172.9 Y133.4 E303.96615
G1 X169.9 Y133.4 E304.10585
M204 S5000
M205 X30 Y30
G0 F7200 X170.3 Y133.8
M204 S500
M205 X20 Y20
;TYPE:WALL-OUTER
G1 F2700 X170.3 Y168.8 E305.73559
G1 X129.7 Y168.8 E307.6261
G1 X129.7 Y133.8 E309.25585
G1 X126.7 Y133.8 E309.39554
G1 X126.7 Y131.2 E309.5166
G1 X132.3 Y131.2 E309.77736
G1 X132.3 Y166.2 E311.40711
G1 X167.7 Y166.2 E313.05548
G1 X167.7 Y131.2 E314.68523
G1 X173.3 Y131.2 E314.94599
G1 X173.3 Y133.8 E315.06706
G1 X170.3 Y133.8 E315.20675
M204 S5000
M205 X30 Y30
G0 F7200 X170.3 Y134
G0 X169.5 Y134
G0 X169.1 Y132.6
;TIME_ELAPSED:153.149148
;LAYER:8
G0 X169.1 Y132.6 Z2.44
M204 S500
M205 X20 Y20
;TYPE:WALL-INNER
